build/img/icons/phone.svg

<svg width="20" height="20" viewBox="0 0 20 20" fill="none" xmlns="http://www.w3.org/2000/svg">
<path fill-rule="evenodd" clip-rule="evenodd" d="M18.7432 16.3001C18.7029 16.3971 18.644 16.4853 18.5696 16.5595L15.8575 19.2716C15.5165 19.6126 15.0682 19.799 14.5939 19.799H14.5675C13.16 19.7761 8.28091 19.4022 4.43934 15.5606C0.596369 11.7176 0.222616 6.83636 0.199899 5.43091C0.192754 4.95285 0.385052 4.48274 0.727371 4.14042L3.43621 1.43058C3.59002 1.28636 3.793 1.20605 4.00392 1.20605C4.21485 1.20605 4.41783 1.28636 4.57165 1.43059L8.56962 5.42856C8.64396 5.50277 8.70294 5.59092 8.74317 5.68794C8.78341 5.78497 8.80412 5.88898 8.80412 5.99402C8.80412 6.09906 8.78341 6.20307 8.74317 6.3001C8.70294 6.39713 8.64384 6.48539 8.5695 6.5596L6.89123 8.23787L6.92524 8.35209C7.14635 9.09482 7.65755 10.5165 8.5695 11.4284C9.48146 12.3404 10.9031 12.8516 11.6459 13.0727L11.7601 13.1067L13.4385 11.4283C13.5127 11.354 13.6008 11.295 13.6978 11.2548C13.7949 11.2145 13.8989 11.1938 14.0039 11.1938C14.109 11.1938 14.213 11.2145 14.31 11.2548C14.407 11.295 14.4953 11.3541 14.5695 11.4284L18.5696 15.4286C18.644 15.5028 18.7029 15.5909 18.7432 15.6879C18.7834 15.785 18.8041 15.889 18.8041 15.994C18.8041 16.0991 18.7834 16.2031 18.7432 16.3001ZM6.87377 5.99402L4.00492 3.12518L1.79856 5.33154L1.79995 5.41629C1.82025 6.65781 2.1495 11.0074 5.57048 14.4284C8.98033 17.8393 13.3148 18.1777 14.5816 18.199L14.6663 18.2004L16.8738 15.9941L14.0049 13.1252L12.5702 14.56C12.4765 14.6541 12.3608 14.7232 12.2335 14.761C12.1062 14.7988 11.9706 14.8039 11.8408 14.7762C11.7901 14.7657 11.0914 14.6157 10.2018 14.264C9.30975 13.9113 8.24167 13.3619 7.43934 12.5596C6.63702 11.7573 6.0876 10.6892 5.73492 9.79711C5.38321 8.90751 5.23314 8.20816 5.22257 8.15751C5.195 8.02759 5.20037 7.89284 5.2382 7.76554C5.27603 7.63823 5.34531 7.52222 5.43934 7.42844L6.87377 5.99402Z" fill="#5CC773"/>
<path fill-rule="evenodd" clip-rule="evenodd" d="M11.189 1.80236V0.202026C16.0492 0.299498 19.6992 3.94598 19.797 8.79902H18.1966C18.1026 4.80187 15.1914 1.89609 11.189 1.80236ZM19.999 8.99902C19.999 8.6784 19.9838 8.3627 19.9542 8.05256C19.9777 8.29801 19.992 8.54693 19.997 8.79902C19.9983 8.86547 19.999 8.93214 19.999 8.99902Z" fill="#5CC773"/>
<path fill-rule="evenodd" clip-rule="evenodd" d="M15.9967 8.80002C15.9967 8.80002 15.9967 8.80002 15.9967 8.80002C15.9968 8.80425 15.9969 8.80849 15.9969 8.81272C15.9969 8.80849 15.9968 8.80425 15.9967 8.80002ZM14.5669 5.43207C15.3315 6.19662 15.7613 7.32205 15.7966 8.80002H14.1962C14.169 7.82414 13.9365 7.07746 13.429 6.56998C12.9215 6.06249 12.1749 5.83005 11.199 5.80277V4.20239C12.6769 4.23772 13.8024 4.66753 14.5669 5.43207Z" fill="#5CC773"/>
</svg>

<svg width="20" height="20" fill="none" xmlns="http://www.w3.org/2000/svg">
    <path fill-rule="evenodd" clip-rule="evenodd" d="M18.743 16.3a.8.8 0 0 1-.173.26l-2.713 2.712c-.34.34-.789.527-1.263.527h-.026c-1.408-.023-6.287-.397-10.129-4.238C.596 11.718.223 6.836.2 5.43a1.799 1.799 0 0 1 .528-1.29l2.71-2.71a.83.83 0 0 1 1.135 0L8.57 5.429a.799.799 0 0 1 0 1.13L6.89 8.239l.034.114c.221.743.733 2.165 1.644 3.076.912.912 2.334 1.424 3.077 1.645l.114.034 1.678-1.679a.799.799 0 0 1 1.131 0l4 4a.799.799 0 0 1 .174.872zM6.873 5.994 4.006 3.125 1.799 5.332l.001.084c.02 1.242.35 5.591 3.77 9.012 3.41 3.411 7.745 3.75 9.012 3.771l.084.001 2.208-2.206-2.87-2.869-1.434 1.435a.794.794 0 0 1-.73.216c-.05-.01-.749-.16-1.638-.512-.892-.353-1.96-.902-2.763-1.704-.802-.803-1.351-1.87-1.704-2.763a11.04 11.04 0 0 1-.512-1.64.796.796 0 0 1 .216-.729l1.435-1.434zM11.189 1.802v-1.6c4.86.097 8.51 3.744 8.608 8.597h-1.6c-.094-3.997-3.006-6.903-7.008-6.997zM19.999 9zM15.997 8.8zm-1.43-3.368c.764.765 1.194 1.89 1.23 3.368h-1.6c-.028-.976-.26-1.723-.768-2.23-.508-.508-1.254-.74-2.23-.767v-1.6c1.478.035 2.603.465 3.368 1.23z" fill="#5CC773"/>
</svg>
